X:46
T:Galtee Ranger, The
T:Humours of Galteemore, The
T:Callaghan's
R:reel
H:Similar to "The Blackberry Blossom", #117
Z:id:hn-reel-46
M:C|
K:D
AF~F2 FEDE|~F3E F2dB|AF~F2 FEDE|1 FBBA FEEF:|2 F2EG FDD2||
~A3B AF~F2|ABde fe~e2|fedc BcdB|ABde fedB|
~A3B AGFG|ABde fe~e2|fedc BcdB|ABde fedB||
<end>
<start>
